X: 24043
T: London, The
R: three-two
M: 3/2
K: Dmajor
K: clef=alto Gmaj
"G"G,2 B,2 D2 G2 Bc d2|"Am"c2 A4 E2 "Am7"GFED|"G"GD"C"EC "Bm"DB,"Am"CA, "G"B,G,A,B,|D2 G,4 CB, A,2 B,2:|
|:"Em"EGEB, "Am"CECA, "G"B,DB,G,|"F#dim7"F,2 A,4 E2 F2 A2|"Bm"BdBF "G"GBGD CB,A,G,|1 D2 G,4 CB, A,2 B,2:|
[2 "(G)"D2 G,4 CB, A,2 G,2|G,12||

